X:2337
T:Gånglåt
S:Gästrikland
S:Efter Tim Rued
Z:[[http://www.bluerose.karenlmyers.org/IncipitsGanglat11.html|Karen Myers (#2337)
Z:Upptecknad 12/2001
M:2/4
L:1/16
R:Gånglåt
O:Gästrikland
K:D
V:1
A2 |: d2d2 dAFA | d2d2 dAFA | G2G2 E2CE | D4- D2FA | d2d2 B2cd |
efed c2Bc | d2dB ^GABG |1 A4- A2A2 :|2 A4- A2d2 |: B2Bd B2Bd | c2ce c2A2 |
d2>d2 {e}dcde | f2d2 A2d2 | B2Bd B2Bd | c2ce c2A2 | d2ed cdec |1 d4- d2d2 :|2 d4- d2A2 ||
|: f2Tfe f2a2 | efec e2>c2 | d2dB d2dB | ABAF DFAd |
f2Tfe f2a2 | efec e2>g2 | fafd egec |1 d4- d2A2 :|2 d6 z2 |]
V:2
G2 |: F2F2 FDA,D | F2F2 FDA,D | E2E2 C2AG | FAdA F2DE | F2F2 ^G2EG |
cdcB A2^GA | B2BD EFGE | C4- C2G2 :| C4- C2F2 |: G2GB G2GB | A2Ac A2G2 |
F2>F2 FEFc | d2A2 F2F2 | G2GB G2GB | A2Ac A2G2 | F2GF EFGE | F4- F2A2 :| F4- F2F2 ||
|: d2dc d2f2 | cdcA c2>A2 | B2BG B2BG | FGFD A,DFA |
d2dc d2f2 | cdcA c2>B2 | AdAF GBGE | F4- F2F2 :| F6 z2 |]
